X:1
T:Title
%%score { 1 | 2 }
L:1/8
Q:1/4=120
M:6/4
K:Ab
V:1 treble nm="Grand Piano"
V:2 bass 
V:1
 [CE]2 [CA]2 [DB]2 [Ec]4 [Fc]2 | [Ec]6 [CA]6 | [CE]2 [EA]2 B2 c4 c2 | [Gd]12 | %4
w: Geo.~C.~Stebbins * * * *||||
 E2 [EB]2 [Ec]2 [Ed]4 [Fd]2 | [Ed]6 [DB]6 | E2 G2 A2 B4 c2 | [CA]12 | c2 c2 c2 c4 e2 | %9
w: |||||
 [Ge]6 G4 G2 | A4 A2 B4 [FB]2 | [=Ec]12 | [Ee]2 [Ee]2 [Ee]2 [Fd]4 [_Gc]2 | [FB]6 F6 | %14
w: |||||
 G2 G2 G2 A4 B2 | [CA]12 |] %16
w: ||
V:2
 [A,,E,]2 [A,,E,]2 [A,,E,]2 [A,,A,]4 [A,,A,]2 | [A,,A,]6 [A,,E,]6 | %2
 [A,,A,]2 [C,A,]2 [E,G,E]2 [A,E]4 [F,=A,F]2 | [E,B,]12 | %4
 [E,G,]2 [D,G,]2 [C,A,]2 [B,,G,]4 [A,,A,]2 | [G,,B,]6 [B,,G,]6 | %6
 [E,G,D]2 [E,B,D]2 [E,A,C]2 [E,G,D]4 [E,G,E]2 | [A,,A,]12 | %8
 [A,E]2 [A,CF]2 [A,EG]2 [A,EA]4 [A,CA]2 | [E,B,]6 [E,B,E]4 [E,B,D]2 | %10
 [F,A,C]4 [F,A,C]2 [D,F,D]4 [D,F,]2 | [C,G,]12 | [A,C]2 [A,C]2 [_G,C]2 [F,D]4 [E,A,]2 | %13
 [D,D]6 [D,B,D]6 | [E,B,D]2 [E,B,D]2 [E,B,D]2 [E,A,C]4 [E,G,D]2 | [A,,A,]12 |] %16

